X:1
T:Title
%%score { ( 1 2 ) | ( 3 4 ) }
L:1/8
M:4/4
K:Eb
V:1 treble nm="Grand Piano"
V:2 treble 
V:3 bass 
V:4 bass 
V:1
 z4 z2[Q:1/4=106] z z/ F/ | [B,EG]2 [CEA]2 [B,EG]2 (3[A,F]GF | E2 [Ec]2 B2 e>c | B2 c>B G2 E2 | %4
[M:3/4] z2 z2 [DF]2 |[M:1/4] z z/ F/ |[M:4/4] [B,EG]2 [CEA]2 [B,EG]2 (3[A,F]GF | E2 [Ec]2 B2 e>c | %8
 B2 c>B G2 E2 |[M:7/8] [DF]- [DF]3 E3 |[M:1/4] G>A |[M:4/4] [EGB]2 A->[Ad] [Ge]2 d>c | %12
 [EGB]2 [B,EG]2 [B,DF]2 [G,DG]2 | [G,E]2 [G,CE]2 [CF]2 [CF]2 |[M:7/8] [=B,DG]- [B,DG]3 [B,DG]3 | %15
[M:1/4] [G,E]>F |[M:4/4] [B,EG]2 [CEA]2 [B,EG]2 (3[A,F]GF |[M:9/8] E2 [Ec]- [Ec] B2- Be>c | %18
[M:4/4] B2 c>B [B,EG]2 [=A,E]2 |[M:7/8] E2 z z z z2 |] %20
V:2
 z4 z2 E2 | z4 z2 D2 | x8 | x8 |[M:3/4] [EG]4 z A, |[M:1/4] E2 |[M:4/4] z4 z2 D2 | x8 | x8 | %9
[M:7/8] x7 |[M:1/4] x2 |[M:4/4] z2 [Ec]2 z2 A2 | x8 | x8 |[M:7/8] x7 |[M:1/4] x2 | %16
[M:4/4] z4 z2 D2 |[M:9/8] x9 |[M:4/4] x8 |[M:7/8] [A,F]- [A,F]3 [G,E]3 |] %20
V:3
 z4 z2 G,>A, | E,2 E,2 E,2 (3z B,A, | z4 z2 [E,E]2 | z2 [E,E]2 z4 |[M:3/4] [B,,B,]4 .[B,,B,]2 | %5
[M:1/4] G,3/2 z/ |[M:4/4] E,2 E,2 E,2 (3z B,A, | z4 z2 [E,E]2 | z2 [E,E]2 z4 | %9
[M:7/8] [B,,A,]- [B,,A,]3 [E,G,]3 |[M:1/4] E>F |[M:4/4] E,2 z z/ B,/ [E,B,]2 C>D | %12
 E,2 E,2 B,,2 z z/ F/ | C,2 C,2 A,2 A,2 |[M:7/8] G,- G,3 G,,3 |[M:1/4] z z/ A,/ | %16
[M:4/4] E,2 E,2 E,2 (3z B,A, |[M:9/8] z3 z3 z [E,E]2 |[M:4/4] z2 [E,E]2 z4 |[M:7/8] z2 D2 E,3 |] %20
V:4
 z4 z2 E,2 | z4 z2 B,,2 | [C,G,]2 [A,,G,]2 [E,G,E]2 C>A, | [E,G,E]2 A,>G, [E,B,E]2 [C,=A,]2 | %4
[M:3/4] x6 |[M:1/4] E,->[E,A,] |[M:4/4] z4 z2 B,,2 | [C,G,]2 [A,,A,]2 [E,G,E]2 C>A, | %8
 [E,G,E]2 A,>G, [E,B,E]2 [C,=A,]2 |[M:7/8] x7 |[M:1/4] [E,B,]2 |[M:4/4] z2 E,2 z2 E,2 | %12
 z4 z2 =B,,2 | x8 |[M:7/8] x7 |[M:1/4] E,2 |[M:4/4] z4 z2 B,,2 | %17
[M:9/8] [C,G,]2 [A,,A,]- [A,,A,] [E,G,E]2- [E,G,E]C>A, |[M:4/4] [E,G,E]2 A,>G, E,2 C,2 | %19
[M:7/8] B,,- B,,3 z z2 |] %20

